X: 37868
T: Sound Man, Éamonn
R: reel
M: 4/4
K: Bminor
|:dcBA F2 DE|FB,DE FB B2|d2 cA FABd|1 fded cAec:|2 fded cAGA||
d2 FA d2 fd|defd Beec|d2 FA dfaf|g2 fd eBBc|
d2 FA d2 fd|defd Beeg|faaf b2 af|defd gfec||

